assets/icons/attach.svg

<svg width="18" height="18" viewBox="0 0 18 18" fill="none" xmlns="http://www.w3.org/2000/svg">
<path d="M13.4993 6.56221C14.4109 5.64714 14.4109 4.16351 13.4993 3.24844C12.5877 2.33336 11.1097 2.33336 10.1981 3.24844L4.69603 8.77139C3.17668 10.2965 3.17638 12.7689 4.69573 14.2941C6.21508 15.8192 8.67844 15.8192 10.1978 14.2941L14.5973 9.87774C14.902 9.57189 15.3972 9.57189 15.7019 9.87773V9.87773C16.0049 10.1819 16.0049 10.6739 15.7019 10.9781L11.2981 15.3986C9.17106 17.5338 5.72241 17.5338 3.59532 15.3986C1.46823 13.2635 1.46823 9.80167 3.59532 7.6665L9.09767 2.14384C10.617 0.618717 13.0804 0.618721 14.5997 2.14384C16.1191 3.66897 16.1191 6.14168 14.5997 7.66681L9.64789 12.6375C8.73628 13.5525 7.25827 13.5525 6.34665 12.6375C5.43504 11.7224 5.43504 10.2388 6.34665 9.3237L10.196 5.45972C10.5007 5.15388 10.9959 5.15388 11.3006 5.45972V5.45972C11.6036 5.76393 11.6037 6.25592 11.3006 6.56013L7.44707 10.4283C7.1432 10.7333 7.1432 11.2279 7.44707 11.5329C7.75094 11.8379 8.24361 11.8379 8.54748 11.5329L13.4993 6.56221Z" fill="_COLOR_VAR_"/>
</svg>

<svg xmlns="http://www.w3.org/2000/svg" width="18" height="18"><path d="M13.5 6.562a2.35 2.35 0 0 0 0-3.314 2.33 2.33 0 0 0-3.302 0L4.696 8.771a3.916 3.916 0 0 0 0 5.523 3.88 3.88 0 0 0 5.502 0l4.4-4.416a.78.78 0 0 1 1.105 1.1l-4.405 4.42a5.43 5.43 0 0 1-7.703 0 5.48 5.48 0 0 1 0-7.731l5.503-5.523a3.88 3.88 0 0 1 5.502 0 3.916 3.916 0 0 1 0 5.523l-4.952 4.97a2.33 2.33 0 0 1-3.301 0 2.35 2.35 0 0 1 0-3.313l3.849-3.864a.78.78 0 0 1 1.105 1.1l-3.854 3.868a.783.783 0 0 0 0 1.105.776.776 0 0 0 1.1 0z"/></svg>
